src/svg/uf26c-television,tv.svg

<!-- Generated by IcoMoon.io -->
<svg version="1.1" xmlns="http://www.w3.org/2000/svg" width="34" height="32" viewBox="0 0 34 32">
<path d="M32 22.286v-17.143c0-0.304-0.268-0.571-0.571-0.571h-28.571c-0.304 0-0.571 0.268-0.571 0.571v17.143c0 0.304 0.268 0.571 0.571 0.571h28.571c0.304 0 0.571-0.268 0.571-0.571zM34.286 5.143v17.143c0 1.571-1.286 2.857-2.857 2.857h-13.143v2.286h6.286c0.321 0 0.571 0.25 0.571 0.571v1.143c0 0.321-0.25 0.571-0.571 0.571h-14.857c-0.321 0-0.571-0.25-0.571-0.571v-1.143c0-0.321 0.25-0.571 0.571-0.571h6.286v-2.286h-13.143c-1.571 0-2.857-1.286-2.857-2.857v-17.143c0-1.571 1.286-2.857 2.857-2.857h28.571c1.571 0 2.857 1.286 2.857 2.857z"></path>
</svg>

<svg xmlns="http://www.w3.org/2000/svg" width="34" height="32"><path d="M32 22.286V5.143a.587.587 0 0 0-.571-.571H2.858a.587.587 0 0 0-.571.571v17.143c0 .304.268.571.571.571h28.571a.587.587 0 0 0 .571-.571zm2.286-17.143v17.143a2.866 2.866 0 0 1-2.857 2.857H18.286v2.286h6.286c.321 0 .571.25.571.571v1.143c0 .321-.25.571-.571.571H9.715a.564.564 0 0 1-.571-.571V28c0-.321.25-.571.571-.571h6.286v-2.286H2.858a2.866 2.866 0 0 1-2.857-2.857V5.143a2.866 2.866 0 0 1 2.857-2.857h28.571a2.866 2.866 0 0 1 2.857 2.857z"/></svg>
